X:6
T:La Pouille
B:Les p'tites danses d'Erezee
O:Wallonie
M:2/4
R:quadrille (poule)
L:1/16
Q:C4=100
K:C
(3gab |: c'4 g4 | e2fe d2cd | e2c2 f2d2 | gagf e2 (3gab |
c'4 g4 | e2fe d2cd | e2f2 dcde |1 c6 (3gab :|2 c6 cB |
|: A2A2 B2c2 | dcBA G2G2 | A2c2 B2d2 | cdef g2 cB |
A2A2 B2c2 | dcBA G2G2 | A2Ac B2Bd |1 c6 cB :|2 c6 ||
